.icons/Gruvbox-Plus-Dark/apps/16/heroesofnewerth.svg

<svg width="16" height="16" version="1.1" xmlns="http://www.w3.org/2000/svg">
  <defs>
    <style id="current-color-scheme" type="text/css">.ColorScheme-Text { color:#ebdbb2; } .ColorScheme-Highlight { color:#458588; }</style>
  </defs>
  <path class="ColorScheme-Text" d="m0 3.6v2 1.6 4.4h1.6v-4.4h0.8v2.8h1.6v-6.4h-1.6v2h-0.8v-2h-1.6zm8 0c-0.849 0-1.663 0.337-2.263 0.937s-0.937 1.414-0.937 2.263 0.337 1.663 0.937 2.263 1.414 0.937 2.263 0.937 1.663-0.337 2.263-0.937 0.937-1.414 0.937-2.263-0.337-1.663-0.937-2.263-1.414-0.937-2.263-0.937zm4 0v6.4h1.6v-3.437l0.8 1.386v3.651h1.6v-8h-1.6v1.352l-0.8-1.352h-1.6zm-4 1.6c0.424 0 0.831 0.169 1.131 0.469s0.469 0.707 0.469 1.131-0.169 0.831-0.469 1.131-0.707 0.469-1.131 0.469-0.831-0.169-1.131-0.469-0.469-0.707-0.469-1.131 0.169-0.831 0.469-1.131 0.707-0.469 1.131-0.469zm-3.2 5.6v1.6h6.4v-1.6h-6.4z" fill="currentColor"/>
</svg>

<svg width="16" height="16" version="1.1" xmlns="http://www.w3.org/2000/svg">
  <defs>
    <style type="text/css" id="current-color-scheme">.ColorScheme-Text { color:#ebdbb2; } .ColorScheme-Highlight { color:#458588; }</style>
  </defs>
 <path class="ColorScheme-Text" fill="currentColor" d="M 0 3.6 L 0 5.6 L 0 7.2 L 0 11.6 L 1.6 11.6 L 1.6 7.2 L 2.4 7.2 L 2.4 10 L 4 10 L 4 3.6 L 2.4 3.6 L 2.4 5.6 L 1.6 5.6 L 1.6 3.6 L 0 3.6 Z M 8 3.6 C 7.151 3.6 6.337 3.937 5.737 4.537 C 5.137 5.137 4.8 5.951 4.8 6.8 C 4.8 7.649 5.137 8.463 5.737 9.063 C 6.337 9.663 7.151 10 8 10 C 8.849 10 9.663 9.663 10.263 9.063 C 10.863 8.463 11.2 7.649 11.2 6.8 C 11.2 5.951 10.863 5.137 10.263 4.537 C 9.663 3.937 8.849 3.6 8 3.6 L 8 3.6 Z M 12 3.6 L 12 10 L 13.6 10 L 13.6 6.563 L 14.4 7.949 L 14.4 11.6 L 16 11.6 L 16 3.6 L 14.4 3.6 L 14.4 4.952 L 13.6 3.6 L 12 3.6 Z M 8 5.2 C 8.424 5.2 8.831 5.369 9.131 5.669 C 9.431 5.969 9.6 6.376 9.6 6.8 C 9.6 7.224 9.431 7.631 9.131 7.931 C 8.831 8.231 8.424 8.4 8 8.4 C 7.576 8.4 7.169 8.231 6.869 7.931 C 6.569 7.631 6.4 7.224 6.4 6.8 C 6.4 6.376 6.569 5.969 6.869 5.669 C 7.169 5.369 7.576 5.2 8 5.2 L 8 5.2 Z M 4.8 10.8 L 4.8 12.4 L 11.2 12.4 L 11.2 10.8 L 4.8 10.8 Z"/>
</svg>
